static/img/xr/Slider_32_Anatomy.svg

<svg fill="none" height="56" viewBox="0 0 208 56" width="208" xmlns="http://www.w3.org/2000/svg"><rect fill="#89c6ed" height="2" rx="1" width="144" x="32" y="25"/><rect fill="#cbcdd6" height="32" rx="8" width="20" x="94" y="10"/><path d="m105.607 27.4267c-.067-.58-.2-1.1533-.414-1.6933-.465.1834-.973.2332-1.465.1437-.493-.0895-.95-.3148-1.321-.6504-.554.5733-1.047 1.2067-1.48 1.8733 1.273 1.04 3.366 1.3134 4.68.3267zm-3.187-3.0733c.393-.3667.82-.7067 1.267-1.0067-.406-.3728-.882-.6607-1.4-.8467-.374.58-.32 1.34.133 1.86m1.727-1.3466c.306-.2267.633-.4067.986-.5467-.308-.3-.7-.4984-1.125-.5688-.424-.0703-.86-.0091-1.248.1755.513.2266.987.5466 1.393.94m-4.173-.6467c-.8933 1.2667-.4733 3.1133.56 4.2733.443-.6758.948-1.3096 1.507-1.8933-.574-.6667-.687-1.6133-.267-2.3933-.593-.1467-1.213-.14-1.8.0133zm1.8-.0133 3.66 2.4733c.44-.56.447-1.3467.02-1.9133-.333.1333-.64.32-.92.54.353.42.66.88.9 1.3733m-3.287-3.0467c.394-.28.86-.4333 1.34-.4466-.986-.1667-2-.0534-2.926.3333.533-.06 1.073-.02 1.586.1133zm2.847 3.3934c-.24-.5067-.547-.9734-.907-1.3934-.453.3-.88.64-1.28 1.0067.6.5267 1.447.68 2.187.3867zm1.3-1.4067c.087.6133-.153 1.2267-.627 1.6333.194.4934.34 1 .427 1.52.31-.4605.492-.9953.528-1.5495.035-.5542-.078-1.1078-.328-1.6038zm-.113 3.94c.013.38 0 .7667-.054 1.1467.702-.8996 1.04-2.0298.947-3.1667-.067.7533-.38 1.46-.893 2.02zm3.833-1.6933-2.647-1.5334c.314 1 .307 2.0667-.013 3.0667zm-9.36 1.66c-.387.6333-.6733 1.3266-.84 2.0533.809.6094 1.798.9306 2.811.9125 1.012-.0181 1.989-.3746 2.776-1.0125.18-.4667.266-.9667.253-1.4667-.792.409-1.685.5806-2.572.4943s-1.73-.427-2.428-.9809zm-.413-.48c-.5245-.5337-.9051-1.1914-1.1068-1.9117-.2016-.7204-.2178-1.4801-.0468-2.2083-.7368.869-1.1185 1.984-1.0691 3.1222s.5264 2.2159 1.3357 3.0178c.2067-.7134.5067-1.3934.893-2.02m1.207-6.3267-2.6333-1.5133v3.0333c.7014-.7631 1.6213-1.2915 2.6333-1.5133zm-2.6333 11.8067 2.6533-1.5334c-1.02-.2212-1.9466-.752-2.6533-1.52z" fill="#252a2e"/><g fill="#89c6ed"><circle cx="33" cy="45" r="1"/><circle cx="43.1428" cy="45" r="1"/><circle cx="53.2858" cy="45" r="1"/><circle cx="63.4286" cy="45" r="1"/><circle cx="73.5714" cy="45" r="1"/><circle cx="83.7142" cy="45" r="1"/><circle cx="93.8572" cy="45" r="1"/><circle cx="104" cy="45" r="1"/><circle cx="114.143" cy="45" r="1"/><circle cx="124.286" cy="45" r="1"/><circle cx="134.429" cy="45" r="1"/><circle cx="144.571" cy="45" r="1"/><circle cx="154.714" cy="45" r="1"/><circle cx="164.857" cy="45" r="1"/><circle cx="175" cy="45" r="1"/><path d="m16.25 8.25h77.5v39.5h-77.5z" fill-opacity=".5" stroke="#fff" stroke-width=".5"/><path d="m114.25 8.25h77.5v39.5h-77.5z" fill-opacity=".5" stroke="#fff" stroke-width=".5"/><path d="m94.25 10.25h19.5v31.5h-19.5z" fill-opacity=".5" stroke="#fff" stroke-width=".5"/></g><path d="m0 8h7.99999v208h-7.99999z" fill="#ff95f8" fill-opacity=".5" transform="matrix(0 -1 1 0 -8 8)"/><path d="m16 48h16v40h-16z" fill="#ff95f8" fill-opacity=".5" transform="matrix(-1 0 0 -1 32 96)"/><path d="m208 48h16v40h-16z" fill="#ff95f8" fill-opacity=".5" transform="matrix(-1 0 0 -1 416 96)"/><path d="m0 56h7.99999v208h-7.99999z" fill="#ff95f8" fill-opacity=".5" transform="matrix(0 -1 1 0 -56 56)"/></svg>

<svg width="208" height="56" viewBox="0 0 208 56" fill="none" xmlns="http://www.w3.org/2000/svg">
<rect x="32" y="25" width="144" height="2" rx="1" fill="#89C6ED"/>
<rect x="94" y="10" width="20" height="32" rx="8" fill="#CBCDD6"/>
<path d="M105.607 27.4267C105.54 26.8467 105.407 26.2734 105.193 25.7334C104.728 25.9168 104.22 25.9666 103.728 25.8771C103.235 25.7876 102.778 25.5623 102.407 25.2267C101.853 25.8 101.36 26.4334 100.927 27.1C102.2 28.14 104.293 28.4134 105.607 27.4267ZM102.42 24.3534C102.813 23.9867 103.24 23.6467 103.687 23.3467C103.281 22.9739 102.805 22.686 102.287 22.5C101.913 23.08 101.967 23.84 102.42 24.36M104.147 23.0134C104.453 22.7867 104.78 22.6067 105.133 22.4667C104.825 22.1667 104.433 21.9683 104.008 21.8979C103.584 21.8276 103.148 21.8888 102.76 22.0734C103.273 22.3 103.747 22.62 104.153 23.0134M99.98 22.3667C99.0867 23.6334 99.5067 25.48 100.54 26.64C100.983 25.9642 101.488 25.3304 102.047 24.7467C101.473 24.08 101.36 23.1334 101.78 22.3534C101.187 22.2067 100.567 22.2134 99.98 22.3667ZM101.78 22.3534L105.44 24.8267C105.88 24.2667 105.887 23.48 105.46 22.9134C105.127 23.0467 104.82 23.2334 104.54 23.4534C104.893 23.8734 105.2 24.3334 105.44 24.8267M102.153 21.78C102.547 21.5 103.013 21.3467 103.493 21.3334C102.507 21.1667 101.493 21.28 100.567 21.6667C101.1 21.6067 101.64 21.6467 102.153 21.78ZM105 25.1734C104.76 24.6667 104.453 24.2 104.093 23.78C103.64 24.08 103.213 24.42 102.813 24.7867C103.413 25.3134 104.26 25.4667 105 25.1734ZM106.3 23.7667C106.387 24.38 106.147 24.9934 105.673 25.4C105.867 25.8934 106.013 26.4 106.1 26.92C106.41 26.4595 106.592 25.9247 106.628 25.3705C106.663 24.8163 106.55 24.2627 106.3 23.7667ZM106.187 27.7067C106.2 28.0867 106.187 28.4734 106.133 28.8534C106.835 27.9538 107.173 26.8236 107.08 25.6867C107.013 26.44 106.7 27.1467 106.187 27.7067ZM110.02 26.0134L107.373 24.48C107.687 25.48 107.68 26.5467 107.36 27.5467L110.02 26.0134ZM100.66 27.6734C100.273 28.3067 99.9867 29 99.82 29.7267C100.629 30.3361 101.618 30.6573 102.631 30.6392C103.643 30.6211 104.62 30.2646 105.407 29.6267C105.587 29.16 105.673 28.66 105.66 28.16C104.868 28.569 103.975 28.7406 103.088 28.6543C102.201 28.568 101.358 28.2273 100.66 27.6734ZM100.247 27.1934C99.7225 26.6597 99.3419 26.002 99.1402 25.2817C98.9386 24.5613 98.9224 23.8016 99.0934 23.0734C98.3566 23.9424 97.9749 25.0574 98.0243 26.1956C98.0737 27.3338 98.5507 28.4115 99.36 29.2134C99.5667 28.5 99.8667 27.82 100.253 27.1934M101.46 20.8667L98.8267 19.3534V22.3867C99.5281 21.6236 100.448 21.0952 101.46 20.8734V20.8667ZM98.8267 32.6734L101.48 31.14C100.46 30.9188 99.5334 30.388 98.8267 29.62V32.6734Z" fill="#252A2E"/>
<circle cx="33" cy="45" r="1" fill="#89C6ED"/>
<circle cx="43.1428" cy="45" r="1" fill="#89C6ED"/>
<circle cx="53.2858" cy="45" r="1" fill="#89C6ED"/>
<circle cx="63.4286" cy="45" r="1" fill="#89C6ED"/>
<circle cx="73.5714" cy="45" r="1" fill="#89C6ED"/>
<circle cx="83.7142" cy="45" r="1" fill="#89C6ED"/>
<circle cx="93.8572" cy="45" r="1" fill="#89C6ED"/>
<circle cx="104" cy="45" r="1" fill="#89C6ED"/>
<circle cx="114.143" cy="45" r="1" fill="#89C6ED"/>
<circle cx="124.286" cy="45" r="1" fill="#89C6ED"/>
<circle cx="134.429" cy="45" r="1" fill="#89C6ED"/>
<circle cx="144.571" cy="45" r="1" fill="#89C6ED"/>
<circle cx="154.714" cy="45" r="1" fill="#89C6ED"/>
<circle cx="164.857" cy="45" r="1" fill="#89C6ED"/>
<circle cx="175" cy="45" r="1" fill="#89C6ED"/>
<path d="M16.25 8.25H93.75V47.75H16.25V8.25Z" fill="#89C6ED" fill-opacity="0.5" stroke="white" stroke-width="0.5"/>
<path d="M114.25 8.25H191.75V47.75H114.25V8.25Z" fill="#89C6ED" fill-opacity="0.5" stroke="white" stroke-width="0.5"/>
<path d="M94.25 10.25H113.75V41.75H94.25V10.25Z" fill="#89C6ED" fill-opacity="0.5" stroke="white" stroke-width="0.5"/>
<rect y="8" width="7.99999" height="208" transform="rotate(-90 0 8)" fill="#FF95F8" fill-opacity="0.5"/>
<rect x="16" y="48" width="16" height="40" transform="rotate(180 16 48)" fill="#FF95F8" fill-opacity="0.5"/>
<rect x="208" y="48" width="16" height="40" transform="rotate(180 208 48)" fill="#FF95F8" fill-opacity="0.5"/>
<rect y="56" width="7.99999" height="208" transform="rotate(-90 0 56)" fill="#FF95F8" fill-opacity="0.5"/>
</svg>
